svgs/giffgaff.svg

<svg width="192" height="192" viewBox="0 0 192 192" fill="none" xmlns="http://www.w3.org/2000/svg">
<path d="M52.8649 113.108H64.2666C64.8338 113.108 65.2936 112.648 65.2936 112.081V87.5318M65.2936 87.5318H79.4979M65.2936 87.5318C65.2936 77.3012 66.8313 75.0587 74.1714 75.1089M79.4979 87.5318H87.7838M79.4979 87.5318C79.4979 76.5705 81.2735 75.1089 87.7838 75.1089M79.4979 87.5318V113.108" stroke="black" stroke-width="8" stroke-linecap="round"/>
<path d="M136.054 113.108H147.822C148.389 113.108 148.849 112.648 148.849 112.081V87.5318M148.849 87.5318H163.471M148.849 87.5318C148.849 77.3012 150.431 75.0587 157.987 75.1089M163.471 87.5318H172M163.471 87.5318C163.471 76.5705 165.299 75.1089 172 75.1089M163.471 87.5318V113.108" stroke="black" stroke-width="8" stroke-linecap="round"/>
<path d="M22.4345 127.427C29.7378 132.572 40.6926 127.427 40.6926 121.547V87.7346H52.8649V111.992M39.9181 98.0253C39.9181 106.145 35.4593 112.726 29.9591 112.726C24.4588 112.726 20 106.145 20 98.0253C20 89.9062 24.4588 83.3243 29.9591 83.3243C35.4593 83.3243 39.9181 89.9062 39.9181 98.0253Z" stroke="black" stroke-width="8" stroke-linecap="round" stroke-linejoin="round"/>
<path d="M94.3372 128.442C101.673 133.619 112.677 128.442 112.677 122.524V88.789C112.677 88.2219 113.137 87.762 113.704 87.762H117.568M111.899 98.1168C111.899 106.287 107.421 112.909 101.895 112.909C96.3707 112.909 91.8919 106.287 91.8919 98.1168C91.8919 89.9471 96.3707 83.3243 101.895 83.3243C107.421 83.3243 111.899 89.9471 111.899 98.1168Z" stroke="black" stroke-width="8" stroke-linecap="round"/>
<path d="M121.938 90.6294C124.36 80.8886 137.081 83.1365 137.081 92.8773V98.8716M137.081 98.8716C133.059 97.4026 130.806 97.3915 126.784 98.8716C118.304 102.618 118.909 112.358 126.784 113.108C132.236 113.108 134.46 109.657 137.081 102.618M137.081 98.8716V102.618M137.081 113.108V102.618" stroke="black" stroke-width="8" stroke-linecap="round"/>
<path d="M52.8649 77.1622C54.5665 77.1622 55.9459 75.7827 55.9459 74.0811C55.9459 72.3794 54.5665 71 52.8649 71C51.1632 71 49.7838 72.3794 49.7838 74.0811C49.7838 75.7827 51.1632 77.1622 52.8649 77.1622Z" stroke="black" stroke-width="6"/>
</svg>

<svg width="192" height="192" viewBox="0 0 192 192" fill="none" xmlns="http://www.w3.org/2000/svg"><path d="M52.865 113.108h11.402c.567 0 1.027-.46 1.027-1.027v-24.55m0 0h14.204m-14.204 0c0-10.23 1.537-12.472 8.877-12.422m5.327 12.423h8.286m-8.286 0c0-10.962 1.775-12.423 8.286-12.423m-8.286 12.423v25.576M136.054 113.108h11.768c.567 0 1.027-.46 1.027-1.027v-24.55m0 0h14.622m-14.622 0c0-10.23 1.582-12.472 9.138-12.422m5.484 12.423H172m-8.529 0c0-10.962 1.828-12.423 8.529-12.423m-8.529 12.423v25.576" stroke="#000" stroke-width="8" stroke-linecap="round"/><path d="M22.434 127.427c7.304 5.145 18.259 0 18.259-5.88V87.735h12.172v24.257M39.918 98.025c0 8.12-4.459 14.701-9.959 14.701S20 106.145 20 98.026c0-8.12 4.459-14.702 9.96-14.702 5.5 0 9.958 6.582 9.958 14.701Z" stroke="#000" stroke-width="8" stroke-linecap="round" stroke-linejoin="round"/><path d="M94.337 128.442c7.336 5.177 18.34 0 18.34-5.918V88.789c0-.567.46-1.027 1.027-1.027h3.864m-5.669 10.355c0 8.17-4.478 14.792-10.004 14.792-5.524 0-10.003-6.622-10.003-14.792s4.479-14.793 10.003-14.793c5.526 0 10.004 6.623 10.004 14.793ZM121.938 90.63c2.422-9.741 15.143-7.493 15.143 2.247v5.995m0 0c-4.022-1.47-6.275-1.48-10.297 0-8.48 3.746-7.875 13.486 0 14.236 5.452 0 7.676-3.451 10.297-10.49m0-3.746v3.746m0 10.49v-10.49" stroke="#000" stroke-width="8" stroke-linecap="round"/><path d="M52.865 77.162a3.081 3.081 0 1 0 0-6.162 3.081 3.081 0 0 0 0 6.162Z" stroke="#000" stroke-width="6"/></svg>
